img/MarcasAutorizadas/SVG/WBR.svg

<?xml version="1.0" encoding="UTF-8" standalone="no"?>
<!DOCTYPE svg PUBLIC "-//W3C//DTD SVG 1.1//EN" "http://www.w3.org/Graphics/SVG/1.1/DTD/svg11.dtd">
<svg width="100%" height="100%" viewBox="0 0 601 184" version="1.1" xmlns="http://www.w3.org/2000/svg" xmlns:xlink="http://www.w3.org/1999/xlink" xml:space="preserve" xmlns:serif="http://www.serif.com/" style="fill-rule:evenodd;clip-rule:evenodd;stroke-linejoin:round;stroke-miterlimit:2;">
    <g id="Camada_2">
        <g id="Camada_1-2">
            <path d="M352.53,180.46L264.45,180.46L264.45,0L346.19,0C367.103,0 382.523,4.69 392.45,14.07C401.117,22.19 405.45,33.463 405.45,47.89C405.491,55.689 403.418,63.355 399.45,70.07C395.478,76.537 389.453,81.492 382.34,84.14C394.147,85.233 403.747,88.853 411.14,95C420.647,102.753 425.4,113.753 425.4,128C425.4,142.787 420.223,154.603 409.87,163.45C396.99,174.79 377.877,180.46 352.53,180.46ZM319.26,36L319.26,71.16L329.4,71.16C339.113,71.16 346.083,69.263 350.31,65.47C353.68,62.59 355.38,58.62 355.38,53.57C355.492,48.98 353.647,44.553 350.31,41.4C346.103,37.8 339.133,36 329.4,36L319.26,36ZM319.26,106.08L319.26,143.96L331.62,143.96C349.36,143.96 360.66,141.523 365.52,136.65C368.473,133.77 369.95,129.893 369.95,125.02C369.95,119.427 368.157,115.093 364.57,112.02C359.903,108.02 348.603,106.02 330.67,106.02L319.26,106.08Z" style="fill-rule:nonzero;stroke:white;stroke-width:1px;"/>
            <path d="M598.66,183.7L598.66,172.53L561.78,119.67C585.05,110 600.3,91.32 600.3,63.24L600.3,62.72C600.3,44.61 594.68,30.44 583.71,19.94C571.14,7.35 551.34,0 522.72,0L434.18,0L434.18,183.7L486.07,183.7L486.07,128.06L508.81,128.06L546.53,183.7L598.66,183.7ZM548.13,66.39C548.13,79.78 537.97,88.18 520.31,88.18L486.07,88.18L486.07,44.09L520.07,44.09C537.45,44.09 548.15,51.44 548.15,65.87L548.13,66.39Z" style="fill-rule:nonzero;stroke:white;stroke-width:1px;"/>
            <path d="M108.82,55.52L104.28,47.75L85.1,105.61L53.35,0.18L0,0.18L60.9,183.7L104.88,183.7L134.26,99.09L108.82,55.52Z" style="fill-rule:nonzero;stroke:white;stroke-width:1px;"/>
            <path d="M230.57,0.18L198.82,105.61L179.26,46.62L174.06,55.52L148.49,99.32L178,183.7L221.99,183.7L282.88,0.18L230.57,0.18Z" style="fill-rule:nonzero;stroke:white;stroke-width:1px;"/>
            <path d="M90.58,1.08L192.3,1.08L141.44,88.18L90.58,1.08Z" style="fill:rgb(255,237,0);fill-rule:nonzero;"/>
        </g>
    </g>
</svg>

<svg xmlns="http://www.w3.org/2000/svg" viewBox="0 0 600.3 183.7"><defs><style>.cls-1{fill:#fff;}.cls-2{fill:#ffed00;}</style></defs><g id="Camada_2" data-name="Camada 2"><g id="Camada_1-2" data-name="Camada 1"><path class="cls-1" d="M352.53,180.46H264.45V0h81.74q31.37,0,46.26,14.07,13,12.18,13,33.82a43.15,43.15,0,0,1-6,22.18,34,34,0,0,1-17.11,14.07Q400.05,85.78,411.14,95q14.26,11.63,14.26,33,0,22.18-15.53,35.45Q390.55,180.46,352.53,180.46ZM319.26,36V71.16H329.4q14.57,0,20.91-5.69c3.37-2.88,5.07-6.85,5.07-11.9a16.2,16.2,0,0,0-5.07-12.17Q344,36,329.4,36Zm0,70.08v37.88h12.36q26.61,0,33.9-7.31,4.43-4.32,4.43-11.63,0-8.39-5.38-13-7-6-33.9-6Z"/><path class="cls-1" d="M598.66,180.14v-7.61l-36.88-52.86C585.05,110,600.3,91.32,600.3,63.24v-.52c0-18.11-5.62-32.28-16.59-42.78C571.14,7.35,551.34,0,522.72,0H434.18V183.7h51.89V128.06h22.74l37.72,55.64h52.13ZM548.13,66.39c0,13.39-10.16,21.79-27.82,21.79H486.07V44.09h34c17.38,0,28.08,7.35,28.08,21.78Z"/><polygon class="cls-1" points="108.82 55.52 104.28 47.75 85.1 105.61 53.35 0.18 0 0.18 60.9 183.7 104.88 183.7 134.26 99.09 108.82 55.52"/><polygon class="cls-1" points="230.57 0.18 198.82 105.61 179.26 46.62 174.06 55.52 148.49 99.32 178 183.7 221.99 183.7 282.88 0.18 230.57 0.18"/><polygon class="cls-2" points="141.44 1.08 192.3 1.08 166.87 44.63 141.44 88.18 116.01 44.63 90.58 1.08 141.44 1.08"/></g></g></svg>
